!!!OTL: T&szlig;im sínte ar do thuama, S. 43
!!!id: I0536
**kern
*clefG2
*k[]
*C:
{4d
=1
8e
8g
4b
8a
8g
=2
4g
4g}
=3
{4g
=4
4cc
4ee
8dd
8cc
=5
8cc
8b
4cc}
=6
{8cc
8b
=7
4a
4g
4e
=8
4a
8g
8e}
=9
{8c
8d
=10
4e
4d
4c
=11
4c
4c}
4r
=12
{4b
4a
4g
=13
4g
4g}
=14
{8g
8a
=15
4cc
4ee
8dd
8cc
=16
4cc
4cc}
=17
{8cc
8b
=18
8a
8a
4g
4e
=19
4a
8g
8e}
=20
{8c
8d
=21
4e
4d
4c
=22
4c
4c}
==
*-
!!!minrhy: 8
!!!meters: 3/4 ]  ZZ[8
!!!cut: T&szlig;im sínte ar do thuama, S. 43
!!!reg: Irland
!!!trd: O'SULLIVAN, Donal: Song of the Irish
!!!rhy1: X_  XXX_XX  X_X_
!!!rhy2: X_  X_X_XX  XXX_
!!!key: I0536  08  C 3/4 ]  ZZ[8
!!!mod: SECHSTONSKALA DUR ?]  AMBITUS[10
!!!kad: 5+1315+131
!!!akz: 35_+1+1_66_31_75_+1+1_66_31_
!!!fot: 'a__b__c__d__e__as_cv_d__
!!!for: 'a__b__c__cw_cw_d__e__cw_
!!!fok: '^a_^a_\__^__\__^a_\__^__
!! PHRAS[VORWIEGEND AUFTAKTIG]
!!!fkt: Liebeslied, Trauer
!! IRISCHE V
!! PR[19] 2K[11] 2G[23] 3K[1] 3G[1] 4A[4] 4Ü[0] 5A[0] 6K[0] 6G[0]
!! 7K[0] 7G[0] 8A[0] MEHR[0] SI[41] ABS[79] SR[34] SP[6]
!! ST[20] 2k[11] 2g[19] 3k[3] 3g[5] 4d[1] 4ü[0] 5d[0] 6k[1] 6g[0]
!! 7k[0] 7g[0] 8d[0] mehr[0] si[41] dm[0] sr[30] sp[10]
!! 1F[13] 2F[55] 3F[20] 4F[11] LF[0] 2P[0] 3P[1] 4P[0] TRI[0] DF[5] AB[80]
!! TF[0] U3K[0] U3[0] U4[0] U4Ü[0] U5[0] U6K[0] U6[0] U7K[0] U7[0]
!! N1[8] N2K[0] N2[3] N3K[0] N3[3] N4[5] N4Ü[0] N5[15] N6K[0] N6[6]
!!!n7k: 0] N7[14] O1[24] O2K[0] O2[14] O3K[0] O3[8] HÖ[3
!!!RNB: symbol: &szlig; = sz ligature (UTF-8: ÃŸ)
